static/icons/github.svg

<svg height="24" viewBox="0 0 24 24" width="24" xmlns="http://www.w3.org/2000/svg"><path d="m12.0654545 2.27575758c-5.45090905 0-9.87151511 4.42-9.87151511 9.87272722 0 4.3618182 2.82848485 8.0618182 6.75151516 9.3672728.49393939.0909091.67393939-.2139394.67393939-.4757576 0-.2339394-.00848485-.8551515-.01333333-1.6787879-2.74606061.5963637-3.32545455-1.3236363-3.32545455-1.3236363-.44909091-1.1406061-1.09636364-1.4442425-1.09636364-1.4442425-.89636363-.6121212.06787879-.6.06787879-.6.99090909.069697 1.51212121 1.0175758 1.51212121 1.0175758.88060606 1.5084848 2.3109091 1.0727273 2.87333334.82.08969697-.6375758.34484848-1.0727273.62666664-1.3193939-2.19212119-.249091-4.49696967-1.0963637-4.49696967-4.879394 0-1.0775757.38484848-1.95939393 1.01636363-2.6490909-.10181818-.24969697-.44060606-1.25393939.0969697-2.61272727 0 0 .82848485-.26545455 2.71454546 1.01212121.78727268-.21939394 1.63212118-.32848485 2.47151518-.33272727.8387878.00424242 1.6830303.11333333 2.4715151.33272727 1.8848485-1.27757576 2.7121212-1.01212121 2.7121212-1.01212121.5387879 1.35878788.2 2.3630303.0987879 2.61272727.6327273.68969697 1.0145455 1.5715152 1.0145455 2.6490909 0 3.7927273-2.3084849 4.6272727-4.5072728 4.8715152.3539394.3048484.669697.9072727.669697 1.8284848 0 1.319394-.0121212 2.3842424-.0121212 2.7078788 0 .2642424.1781818.5715152.6787879.4751515 3.92-1.3084848 6.7460606-5.0060606 6.7460606-9.3666667 0-5.45272722-4.4206061-9.87272722-9.8733334-9.87272722" fill="#161514"/></svg>

<?xml version="1.0" encoding="UTF-8"?>
<svg width="24px" height="24px" viewBox="0 0 24 24" version="1.1" xmlns="http://www.w3.org/2000/svg" xmlns:xlink="http://www.w3.org/1999/xlink">
  <path d="M12.0654545,2.27575758 C6.61454545,2.27575758 2.19393939,6.69575758 2.19393939,12.1484848 C2.19393939,16.510303 5.02242424,20.210303 8.94545455,21.5157576 C9.43939394,21.6066667 9.61939394,21.3018182 9.61939394,21.04 C9.61939394,20.8060606 9.61090909,20.1848485 9.60606061,19.3612121 C6.86,19.9575758 6.28060606,18.0375758 6.28060606,18.0375758 C5.83151515,16.8969697 5.18424242,16.5933333 5.18424242,16.5933333 C4.28787879,15.9812121 5.25212121,15.9933333 5.25212121,15.9933333 C6.2430303,16.0630303 6.76424242,17.0109091 6.76424242,17.0109091 C7.64484848,18.5193939 9.07515152,18.0836364 9.63757576,17.8309091 C9.72727273,17.1933333 9.98242424,16.7581818 10.2642424,16.5115152 C8.07212121,16.2624242 5.76727273,15.4151515 5.76727273,11.6321212 C5.76727273,10.5545455 6.15212121,9.67272727 6.78363636,8.9830303 C6.68181818,8.73333333 6.3430303,7.72909091 6.88060606,6.37030303 C6.88060606,6.37030303 7.70909091,6.10484848 9.59515152,7.38242424 C10.3824242,7.1630303 11.2272727,7.05393939 12.0666667,7.04969697 C12.9054545,7.05393939 13.749697,7.1630303 14.5381818,7.38242424 C16.4230303,6.10484848 17.250303,6.37030303 17.250303,6.37030303 C17.7890909,7.72909091 17.450303,8.73333333 17.3490909,8.9830303 C17.9818182,9.67272727 18.3636364,10.5545455 18.3636364,11.6321212 C18.3636364,15.4248485 16.0551515,16.2593939 13.8563636,16.5036364 C14.210303,16.8084848 14.5260606,17.4109091 14.5260606,18.3321212 C14.5260606,19.6515152 14.5139394,20.7163636 14.5139394,21.04 C14.5139394,21.3042424 14.6921212,21.6115152 15.1927273,21.5151515 C19.1127273,20.2066667 21.9387879,16.5090909 21.9387879,12.1484848 C21.9387879,6.69575758 17.5181818,2.27575758 12.0654545,2.27575758" fill="#161514"></path>
</svg>
